lib/healthicons/icons/outline/typography/N.svg

<svg fill="none" height="48" viewBox="0 0 48 48" width="48" xmlns="http://www.w3.org/2000/svg"><path clip-rule="evenodd" d="m11 35.9998v-24c0-1.263.7911-2.39079 1.9787-2.82077s2.5174-.07005 3.326.90027l14.6953 17.6344v-15.7139c0-1.6568 1.3431-2.99996 3-2.99996s3 1.34316 3 2.99996v24c0 1.2631-.7911 2.3909-1.9787 2.8209-1.1876.4299-2.5174.07-3.326-.9003l-14.6953-17.6344v15.7138c0 1.6569-1.3431 3-3 3s-3-1.3431-3-3zm2-24v24c0 .5523.4477 1 1 1s1-.4477 1-1v-18.4759c0-.421.2637-.7969.6596-.9402.3958-.1434.8391-.0234 1.1086.3001l16.4636 19.7562c.2695.3235.7127.4434 1.1086.3001s.6596-.5192.6596-.9403v-24c0-.5522-.4477-1-1-1s-1 .4478-1 1v18.4759c0 .4211-.2637.797-.6596.9403s-.8391.0234-1.1086-.3001l-16.4636-19.7562.7682-.6402-.7682.6402c-.2695-.3235-.7128-.4435-1.1086-.3001-.3959.1433-.6596.5192-.6596.9402z" fill="#333" fill-rule="evenodd"/></svg>

<svg width="48" height="48" viewBox="0 0 48 48" fill="none" xmlns="http://www.w3.org/2000/svg">
<path fill-rule="evenodd" clip-rule="evenodd" d="M11 35.9998L11 11.9998C11 10.7368 11.7911 9.60901 12.9787 9.17903C14.1663 8.74905 15.4961 9.10898 16.3047 10.0793L31 27.7137L31 11.9998C31 10.343 32.3431 8.99984 34 8.99984C35.6569 8.99984 37 10.343 37 11.9998L37 35.9998C37 37.2629 36.2089 38.3907 35.0213 38.8207C33.8337 39.2506 32.5039 38.8907 31.6953 37.9204L17 20.286L17 35.9998C17 37.6567 15.6569 38.9998 14 38.9998C12.3431 38.9998 11 37.6567 11 35.9998ZM13 11.9998L13 35.9998C13 36.5521 13.4477 36.9998 14 36.9998C14.5523 36.9998 15 36.5521 15 35.9998L15 17.5239C15 17.1029 15.2637 16.727 15.6596 16.5837C16.0554 16.4403 16.4987 16.5603 16.7682 16.8838L33.2318 36.64C33.5013 36.9635 33.9445 37.0834 34.3404 36.9401C34.7363 36.7968 35 36.4209 35 35.9998L35 11.9998C35 11.4476 34.5523 10.9998 34 10.9998C33.4477 10.9998 33 11.4476 33 11.9998L33 30.4757C33 30.8968 32.7363 31.2727 32.3404 31.416C31.9445 31.5593 31.5013 31.4394 31.2318 31.1159L14.7682 11.3597L15.5364 10.7195L14.7682 11.3597C14.4987 11.0362 14.0554 10.9162 13.6596 11.0596C13.2637 11.2029 13 11.5788 13 11.9998Z" fill="#333333"/>
</svg>
